apps/web/public/images/home/built-for-teams-agencies-icon.svg

<svg width="55" height="54" viewBox="0 0 55 54" fill="none" xmlns="http://www.w3.org/2000/svg">
    <rect x="0.458144" y="0.458144" width="54.015" height="53.0839" rx="3.20701" fill="url(#paint0_radial_5841_36231)"/>
    <rect x="0.458144" y="0.458144" width="54.015" height="53.0839" rx="3.20701" stroke="url(#paint1_linear_5841_36231)"
          stroke-width="0.916289"/>
    <path d="M17.9524 19.8139H36.9198C37.8629 19.814 38.7674 20.1889 39.4343 20.8558C40.1011 21.5227 40.4762 22.4271 40.4762 23.3702V26.6884L31.6379 29.6365H23.2343L14.396 26.6884V23.3702C14.396 22.427 14.771 21.5227 15.4379 20.8558C16.1049 20.1888 17.0092 19.8139 17.9524 19.8139Z"
          fill="white" stroke="#004CA3"/>
    <path d="M24.7263 19.3058V17.951H30.1455V19.3058H32.8551V17.951C32.8551 17.2324 32.5697 16.5432 32.0615 16.0351C31.5534 15.5269 30.8642 15.2415 30.1455 15.2415H24.7263C24.0077 15.2415 23.3185 15.5269 22.8104 16.0351C22.3022 16.5432 22.0168 17.2324 22.0168 17.951V19.3058H24.7263ZM23.1507 30.1442L13.888 27.0553V35.5634C13.8891 36.641 14.3176 37.6742 15.0796 38.4362C15.8416 39.1982 16.8748 39.6267 17.9524 39.6278H36.9195C37.9971 39.6267 39.0303 39.1982 39.7923 38.4362C40.5543 37.6742 40.9828 36.641 40.9839 35.5634V27.0553L31.7212 30.1442H23.1507Z"
          fill="white"/>
    <defs>
        <radialGradient id="paint0_radial_5841_36231" cx="0" cy="0" r="1" gradientUnits="userSpaceOnUse"
                        gradientTransform="translate(27.4656 2.35781) scale(36.2498 36.8748)">
            <stop stop-color="#74B5FF"/>
            <stop offset="1" stop-color="#0071F2"/>
        </radialGradient>
        <linearGradient id="paint1_linear_5841_36231" x1="27.4656" y1="0" x2="27.4656" y2="54.0002"
                        gradientUnits="userSpaceOnUse">
            <stop stop-color="#0071F2"/>
            <stop offset="1" stop-color="#7CB9FF"/>
        </linearGradient>
    </defs>
</svg>

<svg xmlns="http://www.w3.org/2000/svg" fill="none" viewBox="0 0 55 54"><rect width="54.015" height="53.084" x=".458" y=".458" fill="url(#paint0_radial_5841_36231)" rx="3.207"/><rect width="54.015" height="53.084" x=".458" y=".458" stroke="url(#paint1_linear_5841_36231)" stroke-width=".916" rx="3.207"/><path fill="#fff" stroke="#004ca3" d="M17.952 19.814H36.92a3.557 3.557 0 0 1 3.556 3.556v3.318l-8.838 2.949h-8.404l-8.838-2.949V23.37a3.556 3.556 0 0 1 3.556-3.556Z"/><path fill="#fff" d="M24.726 19.306V17.95h5.42v1.355h2.71V17.95a2.71 2.71 0 0 0-2.71-2.71h-5.42a2.71 2.71 0 0 0-2.71 2.71v1.355zm-1.575 10.838-9.263-3.089v8.508a4.07 4.07 0 0 0 4.064 4.065H36.92a4.07 4.07 0 0 0 4.065-4.065v-8.508l-9.263 3.09z"/><defs><radialGradient id="paint0_radial_5841_36231" cx="0" cy="0" r="1" gradientTransform="matrix(36.2498 0 0 36.8748 27.466 2.358)" gradientUnits="userSpaceOnUse"><stop stop-color="#74b5ff"/><stop offset="1" stop-color="#0071f2"/></radialGradient><linearGradient id="paint1_linear_5841_36231" x1="27.466" x2="27.466" y1="0" y2="54" gradientUnits="userSpaceOnUse"><stop stop-color="#0071f2"/><stop offset="1" stop-color="#7cb9ff"/></linearGradient></defs></svg>
